!!!OTL: Beifaqu
!!!ARE: Asia, China,ÿGuangdong Guangzhou
!! II, 375
!!!SCT: C1899
!!!YEM: Copyright 1995, estate of Helmut Schaffrath.
**kern
*ICvox
*Ivox
*M2/4
*k[f#]
*G:
{4dd
[4b
=1
4b]
[4g
=2
8g]
8a
4b}
=3
{8a
16b
16dd
16b
16a
8f#
=4
8.e
16a
8f#
8e
=5
8.d
16b
8a
8f#
=6
8e
8d
8e
8g
=7
8a
8dd
4b
=8
8a
4.g}
=9
{8e
8d
8e
8g
=10
4b
4g
=11
4f#
4e
=12
8b
8a
8b
8dd
=13
8a
8b
8a
8f#
=14
8e
8d
8f#
8e
=15
2d}
=16
{8.e
16a
8f#
8e
=17
8.d
16b
8a
8f#
=18
8e
8d
8e
8g
=19
8a
8dd
8b
8a
=20
4.g}
{8f#
=21
4e
4b
=22
8ee
8dd
8ee
8gg
=23
8dd
8ee
8cc
8b
=24
8.a
16b
16a
16b
16cc
16dd
=25
4.b
8r}
=26
{8e
8d
8e
8g
=27
4.b
8dd
=28
8b
8dd
8b
8a
=29
4g
8g
8a
=30
4a
8a
8f#
=31
8e
8d
8f#
8e
=32
2d}
=33
{8a
16b
16dd
16b
16a
8f#
=34
4.e
8f#
=35
8e
8g
8a
8b
=36
4.g
8r}
=37
{4.b
16b
16dd
=38
8a
8b
8g
8a
=39
4.b
8dd
=40
8b
8dd
8b
8a
=41
8f#
8e
8f#
8b
=42
8e
8d
8f#
8e
=43
4.d
8r}
=44
{8g
8a
4b
=45
8.g
16b
8a
8f#
=46
8e
8d
4g
=47
8ee
8dd
8ee
8gg
=48
8dd
8ee
8cc
8b
=49
8.a
16b
16a
16b
16cc
16dd
=50
4.b
8r}
=51
{8b
8g
8g
8b
=52
8a
16b
16dd
8g
8a
=53
4b
8.a
16f#
=54
8e
8b
8d
8e
=55
8.g
16b
8f#
8e
=56
4.d
8r}
=57
{8.g
16b
8b
8b
=58
8a
8b
8f#
8e
=59
8d
8e
8f#
8b
=60
8e
8g
8a
8b
=61
2g}
=62
{8e
8d
8e
8g
=63
8b
8dd
8b
8a
=64
8f#
8e
8f#
8b
=65
8e
8d
8f#
8e
=66
2d}
=67
{4e
4b
=68
8.a
16b
16a
16b
16cc
16dd
=69
2b}
=70
{8b
8dd
8b
8f#
=71
8e
8d
8e
8b
=72
8d
8B
4d
=73
8e
8g
8a
8b
=74
2g}
=75
{4b
4g
=76
8d
8B
4d
=77
8b
8dd
16b
16a
8f#
=78
8e
8g
8a
8b
=79
2g}
=80
{4b
4e
=81
8g
8a
8b
8dd
=82
8a
8b
8a
8f#
=83
8e
8d
4g
=84
8e
8d
8f#
8e
=85
2d}
==
!!!AGN: Xiaodiao, Yueou
!!!AMT: simple duple
!!!AIN: vox
!!!EED: Helmut Schaffrath
!!!EEV: 1.0
*-
!!!ONB: Tied note syntax fixed by Craig Sapp, 2004/05/03/
